X:1
T:Title
%%score { 1 | 2 }
L:1/8
M:6/8
K:Ab
V:1 treble nm="Grand Piano"
V:2 bass 
V:1
 z3 z2[Q:1/4=100] [CE] | [CE]>[CF][CG] [CA][CB][EA] | A3 G2 F | E>FE AB[Ec] | B3- B2 e | %5
 c>BA [=DA][DG][B,DF] | [B,EB]3 [G,E]2 [CEF] | [B,EG][Ec][EB] [C=DA]>[B,DG][A,DF] | %8
[M:5/8] [G,E]-[G,E]- [G,E]3 |[M:1/8] [G,E] |[M:3/4] [G,E][B,EG] [DGB][FGd]- [FGd]/[EGc]/B | %11
 c3 A2 c | c>B A[=DF] [DG][DA] | B4- BE | EF GA [C_GB][EGc] | [Fe]3 [Fd]2 F | EA cB FG | %17
[M:5/8] [CA]-[CA]- [CA]3 |] %18
V:2
 z3 z2 [A,,A,] | [A,,A,]>[A,,A,][A,,A,] [A,,A,][A,,A,][C,A,] | [E,B,D]3 [E,B,D]2 [F,A,D] | %3
 [G,B,D]>[G,B,D][G,B,D] [A,C][A,D][A,,A,] | [E,G,E]3- [E,G,E]2 [G,B,E] | %5
 [A,E]>[A,C][F,A,C] [B,,B,][B,,B,]A,, | G,,3 C,2 A,, | B,,[B,,G,][B,,G,] B,,>B,,B,, | %8
[M:5/8] E,-E,- E,3 |[M:1/8] E, |[M:3/4] E,E, E,E,- E,/E,/[E,DE] | [A,CE]3 [A,CE]2 [A,C] | %12
 [F,A,C]>[F,A,C] [F,A,C][B,,A,] [B,,G,][B,,F,] | [E,G,E]4- [E,G,E][G,B,D] | %14
 [A,C][A,C] [G,C=E][F,CF] E,A,, | [D,A,]3 [D,A,]2 [D,A,D] | %16
 [E,A,C][E,CE] [E,A,E][E,G,D] [E,B,D][E,D] |[M:5/8] [A,,E,]-[A,,E,]- [A,,E,]3 |] %18

